flaticon/design/tile-1.svg

<svg xmlns="http://www.w3.org/2000/svg" width="32" height="32" viewBox="0 0 24 24">
    <path d="M 0 0 L 0 24 L 24 24 L 24 0 Z M 23.199219 23.199219 L 0.800781 23.199219 L 0.800781 0.800781 L 23.199219 0.800781 Z M 23.199219 23.199219"/>
    <path d="M 22 18.800781 L 22 2 L 2 2 L 2 22 L 22 22 Z M 2.800781 2.800781 L 21.199219 2.800781 L 21.199219 5.199219 L 2.800781 5.199219 Z M 2.800781 6 L 21.199219 6 L 21.199219 8.398438 L 2.800781 8.398438 Z M 2.800781 9.199219 L 21.199219 9.199219 L 21.199219 11.601562 L 2.800781 11.601562 Z M 2.800781 12.398438 L 21.199219 12.398438 L 21.199219 14.800781 L 2.800781 14.800781 Z M 2.800781 15.601562 L 21.199219 15.601562 L 21.199219 18 L 2.800781 18 Z M 21.199219 21.199219 L 2.800781 21.199219 L 2.800781 18.800781 L 21.199219 18.800781 Z M 21.199219 21.199219"/>
</svg>

<svg xmlns="http://www.w3.org/2000/svg" width="32" height="32" viewBox="0 0 24 24">
    <path d="M0 0v24h24V0zm23.2 23.2H.8V.8h22.4zm0 0"/>
    <path d="M22 18.8V2H2v20h20zM2.8 2.8h18.4v2.4H2.8zm0 3.2h18.4v2.398H2.8zm0 3.2h18.4v2.402H2.8zm0 3.198h18.4v2.403H2.8zm0 3.204h18.4V18H2.8zm18.4 5.597H2.8v-2.398h18.4zm0 0"/>
</svg>
